X:126
T: Knigskinder (2-28) S. 85
N: P0901
O: Lothringen
S: PINCK, Louis: Verklingende Weisen, Bd 2, Metz 1928]
R: verbotene Liebe, Tod]
M: 3/4
L: 1/4
K: D
D | FFF | E2E | D3 | D2
D | GGG | FFF | E3- | E2
A | ABA | dcB | A2B | A2
G | F2D | EFE | D3- | D2
A | ABA | dcB | A2B | A2
G | F2D | EFE | D3- | D2

@@@ Tune index: 7676
